X:164
T: Favorite Air (A)
N: O'Farrell's Pocket Companion v.2 (Sky ed. p.83)
N: "Irish"
M: 4/4
L: 1/8
Q: 120 % "slow"
K: G
D|GAGF E2 D2|d2 ed/c/ B2 A>G|G>FGA B2 ed/c/|BG AG/A/ G3 :|
d|: e>def g2 f>a|gf e/d/e/f/ e>d B2|e>def g2 fg/a/|gf e/d/e/f/ e3d|
e>def g2 dg/f/|ed/B/ dB/A/ G>ED>E|G>FGA B2 ed/c/|B>GA>G G4||
